X:7863
T:Heidenr\"oslein
C:anon.
O:Germany
Z:Transcribed by Frank Nordberg - http://www.musicaviva.com
F:http://abc.musicaviva.com/tunes/germany/anon-heidenroslein.abc
M:6/8
L:1/8
K:D
D2D A>GF|E2E E3|F2F GAB|B3 A3|A2G F2F|
F2E D3|D2D DEF|G2F E3|F2F A>GF|F3 E2z|
F2A B2B|ABc d3|d2B A2F|E>FE D3|]
W:
W:
W:  From Musica Viva - http://www.musicaviva.com
W:  the Internet center for free sheet music downloads.
